icons/linear-new-symbol-structure-organization.svg

<svg xmlns="http://www.w3.org/2000/svg" width="32px" height="32px" viewBox="0 0 32 32" version="1.1">
    <title>linear-new-symbol-structure-organization</title>
    <g id="linear-new-symbol-structure-organization" stroke-width="1" fill-rule="evenodd">
        <path d="M20,2 C20.5522847,2 21,2.44771525 21,3 L21,11 C21,11.5522847 20.5522847,12 20,12 L17,12 L17,15 L24,15 C24.5522847,15 25,15.4477153 25,16 L25,20 L28,20 C28.5522847,20 29,20.4477153 29,21 L29,29 C29,29.5522847 28.5522847,30 28,30 L20,30 C19.4477153,30 19,29.5522847 19,29 L19,21 C19,20.4477153 19.4477153,20 20,20 L23,20 L23,17 L9,17 L9,20 L12,20 C12.5522847,20 13,20.4477153 13,21 L13,29 C13,29.5522847 12.5522847,30 12,30 L4,30 C3.44771525,30 3,29.5522847 3,29 L3,21 C3,20.4477153 3.44771525,20 4,20 L7,20 L7,16 C7,15.4477153 7.44771525,15 8,15 L15,15 L15,12 L12,12 C11.4477153,12 11,11.5522847 11,11 L11,3 C11,2.44771525 11.4477153,2 12,2 L20,2 Z M11,22 L5,22 L5,28 L11,28 L11,22 Z M27,22 L21,22 L21,28 L27,28 L27,22 Z M19,4 L13,4 L13,10 L19,10 L19,4 Z" id="&#24418;&#29366;" fill-rule="nonzero" />
    </g>
</svg>

<svg xmlns="http://www.w3.org/2000/svg" viewBox="0 0 32 32"><path fill="currentColor" d="M20 2a1 1 0 0 1 1 1v8a1 1 0 0 1-1 1h-3v3h7a1 1 0 0 1 1 1v4h3a1 1 0 0 1 1 1v8a1 1 0 0 1-1 1h-8a1 1 0 0 1-1-1v-8a1 1 0 0 1 1-1h3v-3H9v3h3a1 1 0 0 1 1 1v8a1 1 0 0 1-1 1H4a1 1 0 0 1-1-1v-8a1 1 0 0 1 1-1h3v-4a1 1 0 0 1 1-1h7v-3h-3a1 1 0 0 1-1-1V3a1 1 0 0 1 1-1zm-9 20H5v6h6zm16 0h-6v6h6zM19 4h-6v6h6z"/></svg>
